packages/icons/src/svg/file-database-o.svg

<svg xmlns="http://www.w3.org/2000/svg" viewBox="0 0 32 32">
	<path class="ti-file" d="M0 12v4h16v-4zm2 3H1v-2h1zm2 0H3v-2h1zm2 0H5v-2h1zm9 0h-2v-2h2zM0 17v4h16v-4zm2 3H1v-2h1zm2 0H3v-2h1zm2 0H5v-2h1zm-6 2v4h16v-4zm2 3H1v-2h1zm2 0H3v-2h1zm2 0H5v-2h1z"/>
	<path class="ti-file-database-o-badge" d="M22 0H6v11h2V2h11v10h11v18H8v-3H6v5h26V10zm-1 10V2l8 8z"/>
</svg>

<svg xmlns="http://www.w3.org/2000/svg" viewBox="0 0 32 32">
  <path class="ti-file" d="M0,12v4H16V12Zm2,3H1V13H2Zm2,0H3V13H4Zm2,0H5V13H6Zm9,0H13V13h2ZM0,17v4H16V17Zm2,3H1V18H2Zm2,0H3V18H4Zm2,0H5V18H6ZM0,22v4H16V22Zm2,3H1V23H2Zm2,0H3V23H4Zm2,0H5V23H6Z"/>
  <path class="ti-file-database-o-badge" d="M22,0H6V11H8V2H19V12H30V30H8V27H6v5H32V10ZM21,10V2l8,8Z"/>
</svg>
